X: 14
T:Foxhunters Jig
M:9/8
L:1/8
R:Slip Jig
N:http://www.lesession.co.uk
Z:Steve Mansfield 1998-2001
K:D
FGF F2 D G2 E | FGF F2 D E2 D | FGF F2 D G2 B | AFD DEF E2 D :: 
B=cB BAG FGA | B2 E E2 F G2 B | ABc dcB ABc | d2 D D2 F E2 D :: 
fgf f2 d g2 e | fgf f2 d e2 d | fgf f2 d g2 b | afd def e2 d :: 
gfe d=cB AGA | B2 E E2 F G2 B | ABc dcB ABc | d2 D D2 F E2 D :|

%
%Reels and polkas
%

